theme/img/top/txt_y.svg

<svg width="124" height="126" viewBox="0 0 124 126" fill="none" xmlns="http://www.w3.org/2000/svg">
<path d="M77.1143 75.6631V103.422C77.1143 111.479 77.5293 118.876 78.3594 125.614H45.6201C46.4014 119.56 46.792 112.162 46.792 103.422V75.6631L12.4414 19.0469C8.48633 12.7969 4.45801 6.71777 0.356445 0.80957H38.2959C39.4189 4.56934 41.7627 9.81836 45.3271 16.5566L61.9531 47.0254L78.6523 16.6299C82.4609 9.69629 84.7803 4.42285 85.6104 0.80957H123.477C119.18 7.01074 115.176 13.0898 111.465 19.0469L77.1143 75.6631Z" fill="url(#paint0_linear_3_306)"/>
<defs>
<linearGradient id="paint0_linear_3_306" x1="-790" y1="-42.8157" x2="17.8276" y2="385.126" gradientUnits="userSpaceOnUse">
<stop stop-color="#001F63"/>
<stop offset="1" stop-color="#00E1EC"/>
</linearGradient>
</defs>
</svg>

<svg xmlns="http://www.w3.org/2000/svg" width="124" height="126" fill="none"><path fill="url(#a)" d="M77.114 75.663v27.759q0 12.085 1.245 22.192H45.62q1.172-9.082 1.172-22.192V75.663l-34.35-56.616A513 513 0 0 0 .355.81h37.94q1.685 5.64 7.031 15.747l16.626 30.468 16.7-30.395Q84.364 6.23 85.61.81h37.867a448 448 0 0 0-12.012 18.237z"/><defs><linearGradient id="a" x1="-790" x2="17.828" y1="-42.816" y2="385.126" gradientUnits="userSpaceOnUse"><stop stop-color="#001F63"/><stop offset="1" stop-color="#00E1EC"/></linearGradient></defs></svg>
